X: 1
T: Mary Scott
M: 4/4
L: 1/8
R: strathspey
K: Gmaj
B/c/|d>B A<B G2 c>d|e>G F>G A2 (3ABc|d<B (3BAB c>e d<B|A4 G2 z:|e|
d>G (3gfe d>G A<B|c>A (3BAG A2 (3ABc|d>B (3gfe d<B c>e|d<B c>A G>D B>c|
d>G (3gfe d>G A<B|c>A (3BAG A2 (3ABc|B>c d>B c>d e<g|B<d c>A G2z2|
